.local/share/icons/Gruvbox-Plus-Dark/actions/16/format-text-italic.svg

<svg xmlns="http://www.w3.org/2000/svg" width="16" height="16" viewBox="0 0 16 16">
 <defs>
  <style id="current-color-scheme" type="text/css">
   .ColorScheme-Text { color:#ebdbb2; } .ColorScheme-Highlight { color:#458588; }
  </style>
 </defs>
 <path style="fill:currentColor" class="ColorScheme-Text" d="M 4.5 3 L 4.5 5 L 10.5 5 C 10.92816 5 11.09383 5.26733 10.96875 5.71875 L 10.625 7 L 5.375 7 C 3.5365 7 2.2499 8.3524 1.875 9.75 C 1.68757 10.44881 1.71281 11.22885 2.125 11.90625 C 2.53719 12.58367 3.37305 13 4.28125 13 L 10.28125 13 C 10.9998 12.99999 11.25 12.28125 11.25 12.28125 L 12.90625 6.28125 C 13.34093 4.71245 12.18015 3 10.5 3 L 4.5 3 z M 5.375 9 L 10.0625 9 L 9.5 11 L 4.28125 11 C 3.88338 11 3.85666 10.9163 3.8125 10.84375 C 3.7683 10.77115 3.7317 10.55119 3.8125 10.25 C 3.97407 9.64763 4.53028 9 5.375 9 z"/>
</svg>

<svg width="16" height="16" version="1.1" xmlns="http://www.w3.org/2000/svg">
  <defs>
    <style id="current-color-scheme" type="text/css">.ColorScheme-Text { color:#ebdbb2; } .ColorScheme-Highlight { color:#458588; }</style>
  </defs>
  <path class="ColorScheme-Text" d="m4.5 3v2h6c0.4282 0 0.5938 0.2673 0.4688 0.7188l-0.3438 1.281h-5.25c-1.838 0-3.125 1.352-3.5 2.75-0.1874 0.6988-0.1622 1.479 0.25 2.156 0.4122 0.6774 1.248 1.094 2.156 1.094h6c0.7186-1e-5 0.9688-0.7188 0.9688-0.7188l1.656-6c0.4347-1.569-0.7261-3.281-2.406-3.281h-6zm0.875 6h4.688l-0.5625 2h-5.219c-0.3979 0-0.4246-0.0837-0.4688-0.1562-0.0442-0.0726-0.0808-0.2926 0-0.5938 0.1616-0.6024 0.7178-1.25 1.562-1.25z" fill="currentColor"/>
</svg>
